assets/Raised hand/Medium-Dark/Flat/raised_hand_flat_medium-dark.svg

<svg width="32" height="32" viewBox="0 0 32 32" fill="none" xmlns="http://www.w3.org/2000/svg">
<path d="M7.01735 7.29022C8.31352 7.29022 8.70315 8.00002 8.70315 8.00002L8.7969 6.1719C8.87503 5.2121 9.99781 4.25897 11.0481 4.25897C12.4844 4.25897 13.0313 5.2969 13.0313 5.2969C12.9375 3.09377 13.7336 1.99335 15.7112 1.99335C17.3125 2.09377 17.9702 3.61721 17.8438 5.2969C17.8438 5.2969 18.5157 3.9844 20.3743 4.1496C21.4205 4.24259 22.2657 5.2969 22.2657 7.06252L22.0782 14.75C22.0782 14.75 23.2686 13.027 24.1563 12.5156C25.0439 12.0043 26.5102 12.0361 27.2345 12.8058C28.0862 13.7107 28.2409 15.1288 27.6298 15.9933C25.3438 18.9375 23.1563 22.2188 22.4844 23.5781C20.6919 27.2048 17.9532 30.0067 14.2886 30.0067C9.84378 30.0067 5.73593 26.75 5.25003 20.8125C4.76412 14.875 4.70162 10.009 4.70162 10.009C4.62259 8.9621 5.44455 7.29022 7.01735 7.29022Z" fill="#966661"/>
<path d="M13.952 4.49866L14.4832 12.2724C14.502 12.5479 14.2939 12.7865 14.0184 12.8053C13.7429 12.8242 13.5043 12.6161 13.4855 12.3406L13.0007 5.24552C13.0214 5.27809 13.0313 5.2969 13.0313 5.2969C12.9429 3.21836 13.6464 2.12133 15.387 2.00391L15.3869 2.01564C14.9103 2.01207 14.5529 2.23654 14.303 2.65092C14.0414 3.0847 13.902 3.73155 13.952 4.49866Z" fill="#764C49"/>
<path d="M17.8438 5.29689C17.8504 5.20962 17.8548 5.12277 17.8571 5.03652C17.6972 5.51423 17.6128 6.04593 17.594 6.59224L17.5939 6.59921L17.4689 12.7398C17.4632 13.0159 17.6825 13.2443 17.9586 13.2499C18.2347 13.2555 18.463 13.0363 18.4686 12.7602L18.5936 6.62313C18.6205 5.85128 18.7974 5.20247 19.0828 4.76413C19.32 4.39971 19.6257 4.18399 20.0148 4.13547C18.4282 4.15521 17.8438 5.29689 17.8438 5.29689Z" fill="#764C49"/>
<path d="M10.0356 17.6238C11.1987 17.5407 12.9919 17.4322 14.8057 17.5162C16.038 17.5732 17.2433 17.7181 18.2559 18.002C17.7456 18.173 17.1312 18.4059 16.4618 18.7155C14.6418 19.5574 12.3877 20.9791 10.7266 23.2917C10.5655 23.5159 10.6167 23.8284 10.841 23.9895C11.0653 24.1506 11.3777 24.0993 11.5388 23.8751C13.0651 21.7501 15.1548 20.4219 16.8817 19.6231C17.7429 19.2248 18.507 18.9613 19.0542 18.7978C19.3275 18.7161 19.5461 18.6596 19.6947 18.6238C19.769 18.6059 19.8258 18.5932 19.8632 18.5851L19.9044 18.5764L19.9136 18.5746L19.915 18.5743C20.1217 18.5342 20.2815 18.3689 20.3141 18.1609C20.3468 17.9527 20.2455 17.7465 20.0608 17.6451C18.6792 16.8865 16.7085 16.6032 14.852 16.5172C12.9765 16.4304 11.1347 16.5427 9.96438 16.6263C9.68894 16.646 9.4816 16.8852 9.50127 17.1607C9.52094 17.4361 9.76018 17.6434 10.0356 17.6238Z" fill="#764C49"/>
<path d="M8.7041 7.97991L8.79682 6.1719C8.87418 5.22149 9.97585 4.27763 11.0172 4.25925C10.5675 4.33189 10.2677 4.46335 10.0648 4.61456C9.8661 4.76266 9.73597 4.94757 9.65099 5.17154C9.46971 5.64932 9.49533 6.29041 9.58956 7.06135L10.455 13.4959C10.4918 13.7696 10.2998 14.0213 10.0261 14.0581C9.75242 14.0949 9.50073 13.9029 9.46392 13.6292L8.7041 7.97991Z" fill="#764C49"/>
</svg>

<svg xmlns="http://www.w3.org/2000/svg" width="32" height="32" fill="none"><path fill="#966661" d="M7.017 7.29c1.297 0 1.686.71 1.686.71l.094-1.828c.078-.96 1.2-1.913 2.251-1.913 1.436 0 1.983 1.038 1.983 1.038-.094-2.203.703-3.304 2.68-3.304 1.601.1 2.26 1.624 2.133 3.304 0 0 .672-1.313 2.53-1.147 1.047.093 1.892 1.147 1.892 2.913l-.188 7.687s1.19-1.723 2.078-2.234c.888-.512 2.354-.48 3.079.29.851.905 1.006 2.323.395 3.187-2.286 2.944-4.474 6.226-5.146 7.585-1.792 3.627-4.53 6.429-8.195 6.429-4.445 0-8.553-3.257-9.039-9.195-.486-5.937-.548-10.803-.548-10.803-.08-1.047.743-2.719 2.315-2.719Z"/><path fill="#764C49" d="m13.952 4.499.531 7.773a.5.5 0 0 1-.998.069l-.484-7.095.03.05c-.088-2.078.615-3.175 2.356-3.292v.012c-.477-.004-.834.22-1.084.635-.262.434-.401 1.08-.351 1.848ZM17.844 5.297c.006-.087.01-.174.013-.26a5.537 5.537 0 0 0-.263 1.555V6.6l-.125 6.14a.5.5 0 1 0 1 .021l.125-6.137c.026-.772.203-1.42.489-1.859.237-.364.543-.58.932-.629-1.587.02-2.171 1.162-2.171 1.162ZM10.036 17.624c1.163-.083 2.956-.192 4.77-.108 1.232.057 2.437.202 3.45.486a17.66 17.66 0 0 0-1.794.713c-1.82.842-4.074 2.264-5.735 4.577a.5.5 0 1 0 .812.583c1.526-2.125 3.616-3.453 5.343-4.252a16.446 16.446 0 0 1 2.172-.825 12.374 12.374 0 0 1 .81-.213l.04-.009.01-.001h.001a.5.5 0 0 0 .146-.93c-1.382-.758-3.352-1.042-5.209-1.128-1.876-.087-3.717.026-4.888.11a.5.5 0 0 0 .072.997ZM8.704 7.98l.093-1.808c.077-.95 1.179-1.894 2.22-1.913-.45.073-.75.204-.952.356a1.201 1.201 0 0 0-.414.557c-.181.477-.156 1.118-.061 1.89l.865 6.434a.5.5 0 1 1-.991.133l-.76-5.65Z"/></svg>
